turbo/apps/platform/src/views/zero-page/components/settings/icons/qiita.svg

<svg role="img" viewBox="0 0 24 24" xmlns="http://www.w3.org/2000/svg"><title>Qiita</title><path d="M12 0C5.3726 0 0 5.3726 0 12s5.3726 12 12 12c3.3984 0 6.4665-1.413 8.6498-3.6832-.383-.0574-.7746-.2062-1.1466-.4542-.7145-.4763-1.3486-.9263-1.6817-1.674-1.2945 1.3807-3.0532 1.835-5.1822 2.0503-4.311.4359-8.0456-1.4893-8.4979-6.2996-.1922-2.045.2628-3.989 1.1804-5.582l-.5342-2.1009c-.0862-.3652.2498-.7126.6057-.6262l1.8456.448c1.0974-.9012 2.4249-1.49 3.8892-1.638 1.2526-.1267 2.467.0834 3.571.5624l1.7348-1.0494c.3265-.1974.7399.0257.7711.4164l.1 2.4747v.0002c1.334 1.4084 2.2424 3.3319 2.4478 5.516.116 1.2339-.012 2.1776-.339 3.078-.1531.4215-.1992.7778.0776 1.1305.2674.3408.6915 1.0026 1.1644.8917.7107-.1666 1.4718-.1223 1.9422.1715C23.4925 15.9525 24 14.0358 24 12c0-6.6274-5.3726-12-12-12Zm-.0727 5.727a5.2731 5.2731 0 0 0-.6146.0273c-2.2084.2233-3.9572 1.8135-4.4937 3.8484l-1.3176-.1996-.014.2589 1.2972.1407c-.0352.1497-.0643.2384-.086.3923l-1.1319.0902.0103.2025 1.1032-.088c-.0194.1713-.031.2814-.0332.4565l-1.0078.412.0495.2499.9598-.4492c.002.1339.008.2053.0207.3407.2667 2.8371 2.6364 3.3981 5.4677 3.1118 2.8312-.2863 5.0517-1.3114 4.785-4.1486-.013-.1361-.0324-.2068-.0553-.3392l1.0397.2257.0242-.229-1.0906-.207c-.0342-.1687-.0765-.271-.1264-.4327l1.1208-.1374-.0158-.2019-1.1499.1409a5.1093 5.1093 0 0 0-.1665-.4259l1.2665-.4042-.0397-.2536-1.3471.4667c-.819-1.7168-2.5002-2.8224-4.4546-2.8482Z"/></svg>

<svg width="24" height="24" viewBox="0 0 24 24" fill="none" xmlns="http://www.w3.org/2000/svg">
<g clip-path="url(#clip0_10_449)">
<path d="M12 0C5.3726 0 0 5.3726 0 12C0 18.6274 5.3726 24 12 24C15.3984 24 18.4665 22.587 20.6498 20.3168C20.2668 20.2594 19.8752 20.1106 19.5032 19.8626C18.7887 19.3863 18.1546 18.9363 17.8215 18.1886C16.527 19.5693 14.7683 20.0236 12.6393 20.2389C8.3283 20.6748 4.5937 18.7496 4.1414 13.9393C3.9492 11.8943 4.4042 9.9503 5.3218 8.3573L4.7876 6.2564C4.7014 5.8912 5.0374 5.5438 5.3933 5.6302L7.2389 6.0782C8.3363 5.177 9.6638 4.5882 11.1281 4.4402C12.3807 4.3135 13.5951 4.5236 14.6991 5.0026L16.4339 3.9532C16.7604 3.7558 17.1738 3.9789 17.205 4.3696L17.305 6.8443C18.639 8.2527 19.5474 10.1764 19.7528 12.3605C19.8688 13.5944 19.7408 14.5381 19.4138 15.4385C19.2607 15.86 19.2146 16.2163 19.4914 16.569C19.7588 16.9098 20.1829 17.5716 20.6558 17.4607C21.3665 17.2941 22.1276 17.3384 22.598 17.6322C23.4925 15.9525 24 14.0358 24 12C24 5.3726 18.6274 0 12 0ZM11.9273 5.727C11.7221 5.72413 11.5169 5.73325 11.3127 5.7543C9.1043 5.9776 7.3555 7.5678 6.819 9.6027L5.5014 9.4031L5.4874 9.662L6.7846 9.8027C6.7494 9.9524 6.7203 10.0411 6.6986 10.195L5.5667 10.2852L5.577 10.4877L6.6802 10.3997C6.6608 10.571 6.6492 10.6811 6.647 10.8562L5.6392 11.2682L5.6887 11.5181L6.6485 11.0689C6.6505 11.2028 6.6565 11.2742 6.6692 11.4096C6.9359 14.2467 9.3056 14.8077 12.1369 14.5214C14.9681 14.2351 17.1886 13.21 16.9219 10.3728C16.9089 10.2367 16.8895 10.166 16.8666 10.0336L17.9063 10.2593L17.9305 10.0303L16.8399 9.8233C16.8057 9.6546 16.7634 9.5523 16.7135 9.3906L17.8343 9.2532L17.8185 9.0513L16.6686 9.1922C16.6195 9.04782 16.5639 8.90571 16.5021 8.7663L17.7686 8.3621L17.7289 8.1085L16.3818 8.5752C15.5628 6.8584 13.8817 5.7528 11.9273 5.727Z" fill="#55C503"/>
</g>
<defs>
<clipPath id="clip0_10_449">
<rect width="24" height="24" fill="white"/>
</clipPath>
</defs>
</svg>
